src/images/advantage-icon-3.svg

<svg fill="none" height="32" viewBox="0 0 40 32" width="40" xmlns="http://www.w3.org/2000/svg"><path d="m14.8 24.1 5.2-4.05 5.2 4.05-2-6.4 4.9-4.1h-6l-2.1-6.1-2.1 6.1h-6l4.9 4.1zm-11.8 7.9c-.83333 0-1.54167-.2917-2.125-.875-.583333-.5833-.875-1.2917-.875-2.125v-6.6c0-.3333.0916667-.625.275-.875.183333-.25.425-.425.725-.525 1.03333-.3667 1.84167-1.025 2.425-1.975s.875-1.9583.875-3.025c0-1.0333-.29167-2.0333-.875-3s-1.39167-1.6333-2.425-2c-.3-.1-.541667-.275-.725-.525-.1833333-.25-.275-.54167-.275-.875v-6.6c0-.83333.291667-1.54167.875-2.125.58333-.583333 1.29167-.875 2.125-.875h34c.8333 0 1.5417.291667 2.125.875.5833.58333.875 1.29167.875 2.125v6.6c0 .33333-.0917.625-.275.875s-.425.425-.725.525c-1.0333.3667-1.8417 1.0333-2.425 2s-.875 1.9667-.875 3c0 1.0667.2917 2.075.875 3.025s1.3917 1.6083 2.425 1.975c.3.1.5417.275.725.525s.275.5417.275.875v6.6c0 .8333-.2917 1.5417-.875 2.125s-1.2917.875-2.125.875zm0-3h34v-5.45c-1.2667-.8667-2.3-1.95-3.1-3.25s-1.2-2.7333-1.2-4.3.4-3 1.2-4.3 1.8333-2.38333 3.1-3.25v-5.45h-34v5.45c1.3.86667 2.34167 1.95 3.125 3.25s1.175 2.7333 1.175 4.3-.39167 3-1.175 4.3-1.825 2.3833-3.125 3.25z" fill="#fcc241"/></svg>

<svg width="40" height="32" viewBox="0 0 40 32" fill="none" xmlns="http://www.w3.org/2000/svg">
<path d="M14.8 24.1L20 20.05L25.2 24.1L23.2 17.7L28.1 13.6H22.1L20 7.5L17.9 13.6H11.9L16.8 17.7L14.8 24.1ZM3 32C2.16667 32 1.45833 31.7083 0.875 31.125C0.291667 30.5417 0 29.8333 0 29V22.4C0 22.0667 0.0916667 21.775 0.275 21.525C0.458333 21.275 0.7 21.1 1 21C2.03333 20.6333 2.84167 19.975 3.425 19.025C4.00833 18.075 4.3 17.0667 4.3 16C4.3 14.9667 4.00833 13.9667 3.425 13C2.84167 12.0333 2.03333 11.3667 1 11C0.7 10.9 0.458333 10.725 0.275 10.475C0.0916667 10.225 0 9.93333 0 9.6V3C0 2.16667 0.291667 1.45833 0.875 0.875C1.45833 0.291667 2.16667 0 3 0H37C37.8333 0 38.5417 0.291667 39.125 0.875C39.7083 1.45833 40 2.16667 40 3V9.6C40 9.93333 39.9083 10.225 39.725 10.475C39.5417 10.725 39.3 10.9 39 11C37.9667 11.3667 37.1583 12.0333 36.575 13C35.9917 13.9667 35.7 14.9667 35.7 16C35.7 17.0667 35.9917 18.075 36.575 19.025C37.1583 19.975 37.9667 20.6333 39 21C39.3 21.1 39.5417 21.275 39.725 21.525C39.9083 21.775 40 22.0667 40 22.4V29C40 29.8333 39.7083 30.5417 39.125 31.125C38.5417 31.7083 37.8333 32 37 32H3ZM3 29H37V23.55C35.7333 22.6833 34.7 21.6 33.9 20.3C33.1 19 32.7 17.5667 32.7 16C32.7 14.4333 33.1 13 33.9 11.7C34.7 10.4 35.7333 9.31667 37 8.45V3H3V8.45C4.3 9.31667 5.34167 10.4 6.125 11.7C6.90833 13 7.3 14.4333 7.3 16C7.3 17.5667 6.90833 19 6.125 20.3C5.34167 21.6 4.3 22.6833 3 23.55V29Z" fill="#FCC241"/>
</svg>
